X:1
T:Paddy Taylor's Reel #1
R:reel
D:Fintan Vallely
Z:id:hn-reel-396
M:C|
K:Amix
(3cBA eA (3cBA eA|(3cBA eA dBGA|Be~e2 d2ed|BG~G2 BcdB:|
~A2ce ~a3f|gfed ea~a2|~A2Bd eg~g2|dG~G2 BcdB|
~A2ce ~a3f|gfed eaag|~f3d ~e3d|BG~G2 BcdB||
"variations"
(3cBA eA (3cBA eA|cAed BGGA|Be~e2 d2ed|BGGA BcdB|
cA~A2 fAeA|~A2eA dBGA|Be~e2 d2ed|BGGA BcdB||
cAcd eaaf|gfed ea~a2|ABcd efge|dBGA BcdB|
cAcd eaaf|gfed efge|~f3d ~e3d|BGGA BcdB||
